Newaita-dark/apps/32/kid3.svg

<?xml version="1.0" encoding="UTF-8"?>
<svg xmlns="http://www.w3.org/2000/svg" xmlns:xlink="http://www.w3.org/1999/xlink" width="32pt" height="32pt" viewBox="0 0 32 32" version="1.1">
<defs>
<radialGradient id="radial0" gradientUnits="userSpaceOnUse" cx="450.908936" cy="189.579361" fx="450.908936" fy="189.579361" r="21.166656" gradientTransform="matrix(0.00000017417,-0.0781325,-0.140638,-0.000000101539,38.2387,63.595329)">
<stop offset="0" style="stop-color:rgb(0%,0%,0%);stop-opacity:0.313725;"/>
<stop offset="0.222222" style="stop-color:rgb(0%,0%,0%);stop-opacity:0.27451;"/>
<stop offset="1" style="stop-color:rgb(0%,0%,0%);stop-opacity:0;"/>
</radialGradient>
<radialGradient id="radial1" gradientUnits="userSpaceOnUse" cx="450.908936" cy="189.579361" fx="450.908936" fy="189.579361" r="21.166656" gradientTransform="matrix(-0.00000017417,0.0781325,0.140638,0.000000101539,-19.054571,-7.527482)">
<stop offset="0" style="stop-color:rgb(0%,0%,0%);stop-opacity:0.313725;"/>
<stop offset="0.222222" style="stop-color:rgb(0%,0%,0%);stop-opacity:0.27451;"/>
<stop offset="1" style="stop-color:rgb(0%,0%,0%);stop-opacity:0;"/>
</radialGradient>
<radialGradient id="radial2" gradientUnits="userSpaceOnUse" cx="450.908936" cy="189.579361" fx="450.908936" fy="189.579361" r="21.166656" gradientTransform="matrix(-0.00000017417,-0.0781325,0.140638,-0.000000101539,-19.054571,63.595329)">
<stop offset="0" style="stop-color:rgb(0%,0%,0%);stop-opacity:0.313725;"/>
<stop offset="0.222222" style="stop-color:rgb(0%,0%,0%);stop-opacity:0.27451;"/>
<stop offset="1" style="stop-color:rgb(0%,0%,0%);stop-opacity:0;"/>
</radialGradient>
<radialGradient id="radial3" gradientUnits="userSpaceOnUse" cx="450.908936" cy="189.579361" fx="450.908936" fy="189.579361" r="21.166656" gradientTransform="matrix(0.00000017417,0.0781325,-0.140638,0.000000101539,38.238698,-7.527483)">
<stop offset="0" style="stop-color:rgb(0%,0%,0%);stop-opacity:0.313725;"/>
<stop offset="0.222222" style="stop-color:rgb(0%,0%,0%);stop-opacity:0.27451;"/>
<stop offset="1" style="stop-color:rgb(0%,0%,0%);stop-opacity:0;"/>
</radialGradient>
<linearGradient id="linear0" gradientUnits="userSpaceOnUse" x1="255.323059" y1="233.5" x2="255.323044" y2="254.666656" gradientTransform="matrix(0.0133601,0,0,0.062506,6.180934,13.438784)">
<stop offset="0" style="stop-color:rgb(0%,0%,0%);stop-opacity:0.27451;"/>
<stop offset="1" style="stop-color:rgb(0%,0%,0%);stop-opacity:0;"/>
</linearGradient>
<linearGradient id="linear1" gradientUnits="userSpaceOnUse" x1="1040" y1="1695.118164" x2="1040" y2="175.118134" gradientTransform="matrix(0.016538,0,0,0.016538,0,0)">
<stop offset="0" style="stop-color:rgb(12.941176%,58.823529%,95.294118%);stop-opacity:1;"/>
<stop offset="1" style="stop-color:rgb(39.215686%,70.980392%,96.470588%);stop-opacity:1;"/>
</linearGradient>
<linearGradient id="linear2" gradientUnits="userSpaceOnUse" x1="179.916672" y1="74.75" x2="179.916672" y2="-168.666656" gradientTransform="matrix(0.062506,0,0,0.062506,0,13.438783)">
<stop offset="0" style="stop-color:rgb(98.431373%,75.294118%,17.647059%);stop-opacity:1;"/>
<stop offset="1" style="stop-color:rgb(97.647059%,65.882353%,14.509804%);stop-opacity:1;"/>
</linearGradient>
<linearGradient id="linear3" gradientUnits="userSpaceOnUse" x1="680" y1="935.118103" x2="680" y2="555.118103" >
<stop offset="0" style="stop-color:rgb(74.117647%,74.117647%,74.117647%);stop-opacity:1;"/>
<stop offset="1" style="stop-color:rgb(87.843137%,87.843137%,87.843137%);stop-opacity:1;"/>
</linearGradient>
</defs>
<g id="surface1">
<path style=" stroke:none;fill-rule:nonzero;fill:url(#radial0);" d="M 11.90625 28.035156 L 14.554688 28.035156 L 14.554688 26.710938 L 11.90625 26.710938 Z M 11.90625 28.035156 "/>
<path style=" stroke:none;fill-rule:nonzero;fill:url(#radial1);" d="M 7.277344 28.035156 L 4.628906 28.035156 L 4.628906 29.355469 L 7.277344 29.355469 Z M 7.277344 28.035156 "/>
<path style=" stroke:none;fill-rule:nonzero;fill:url(#radial2);" d="M 7.277344 28.035156 L 4.628906 28.035156 L 4.628906 26.710938 L 7.277344 26.710938 Z M 7.277344 28.035156 "/>
<path style=" stroke:none;fill-rule:nonzero;fill:url(#radial3);" d="M 11.90625 28.035156 L 14.554688 28.035156 L 14.554688 29.355469 L 11.90625 29.355469 Z M 11.90625 28.035156 "/>
<path style=" stroke:none;fill-rule:nonzero;fill:url(#linear0);" d="M 7.277344 27.703125 L 11.90625 27.703125 L 11.90625 29.355469 L 7.277344 29.355469 Z M 7.277344 27.703125 "/>
<path style=" stroke:none;fill-rule:nonzero;fill:url(#linear1);" d="M 26.542969 2.8125 C 22.105469 3.945312 18.605469 4.632812 13.230469 6.121094 C 12.402344 6.285156 11.90625 6.792969 11.90625 7.527344 L 11.90625 20.625 C 11.128906 20.289062 10.226562 20.09375 9.261719 20.09375 C 6.328125 20.09375 3.96875 21.867188 3.96875 24.066406 C 3.96875 26.265625 6.328125 28.035156 9.261719 28.035156 C 12.191406 28.035156 14.554688 26.265625 14.554688 24.066406 L 14.554688 8.519531 L 25.136719 5.871094 L 25.136719 17.976562 C 24.359375 17.640625 23.457031 17.449219 22.492188 17.449219 C 19.558594 17.449219 17.199219 19.21875 17.199219 21.417969 C 17.199219 23.617188 19.558594 25.386719 22.492188 25.386719 C 25.421875 25.386719 27.785156 23.617188 27.785156 21.417969 L 27.785156 4.21875 C 27.785156 3.484375 27.277344 2.8125 26.542969 2.8125 Z M 26.542969 2.8125 "/>
<path style=" stroke:none;fill-rule:nonzero;fill:rgb(100%,100%,100%);fill-opacity:0.392157;" d="M 26.542969 2.8125 C 22.105469 3.945312 18.605469 4.632812 13.230469 6.121094 C 12.402344 6.285156 11.90625 6.792969 11.90625 7.527344 L 11.90625 7.691406 C 11.90625 6.960938 12.402344 6.453125 13.230469 6.285156 C 18.605469 4.796875 22.105469 4.109375 26.542969 2.980469 C 27.277344 2.980469 27.785156 3.652344 27.785156 4.382812 L 27.785156 4.21875 C 27.785156 3.484375 27.277344 2.8125 26.542969 2.8125 Z M 22.492188 17.449219 C 19.558594 17.449219 17.199219 19.21875 17.199219 21.417969 C 17.199219 21.445312 17.199219 21.472656 17.199219 21.5 C 17.257812 19.339844 19.597656 17.613281 22.492188 17.613281 C 23.457031 17.613281 24.359375 17.808594 25.136719 18.144531 L 25.136719 17.976562 C 24.359375 17.640625 23.457031 17.449219 22.492188 17.449219 Z M 9.261719 20.09375 C 6.328125 20.09375 3.96875 21.867188 3.96875 24.066406 C 3.96875 24.09375 3.96875 24.121094 3.96875 24.148438 C 4.027344 21.988281 6.367188 20.261719 9.261719 20.261719 C 10.226562 20.261719 11.128906 20.453125 11.90625 20.789062 L 11.90625 20.625 C 11.128906 20.289062 10.226562 20.09375 9.261719 20.09375 Z M 9.261719 20.09375 "/>
<path style=" stroke:none;fill-rule:nonzero;fill:rgb(0%,0%,0%);fill-opacity:0.235294;" d="M 25.136719 5.675781 L 14.554688 8.320312 L 14.554688 8.519531 L 25.136719 5.871094 Z M 27.785156 21.222656 C 27.785156 23.421875 25.421875 25.191406 22.492188 25.191406 C 19.605469 25.191406 17.269531 23.472656 17.203125 21.320312 C 17.199219 21.351562 17.199219 21.386719 17.199219 21.417969 C 17.199219 23.617188 19.558594 25.386719 22.492188 25.386719 C 25.421875 25.386719 27.785156 23.617188 27.785156 21.417969 Z M 14.554688 23.867188 C 14.554688 26.066406 12.191406 27.835938 9.261719 27.835938 C 6.375 27.835938 4.039062 26.121094 3.972656 23.964844 C 3.96875 24 3.96875 24.03125 3.96875 24.066406 C 3.96875 26.265625 6.328125 28.035156 9.261719 28.035156 C 12.191406 28.035156 14.554688 26.265625 14.554688 24.066406 Z M 14.554688 23.867188 "/>
<path style=" stroke:none;fill-rule:nonzero;fill:rgb(12.941177%,12.941177%,12.941177%);fill-opacity:1;" d="M 26.542969 2.71875 L 26.519531 2.722656 C 22.085938 3.851562 18.582031 4.542969 13.207031 6.03125 C 12.78125 6.117188 12.433594 6.292969 12.191406 6.546875 C 11.949219 6.800781 11.8125 7.140625 11.8125 7.527344 L 11.8125 20.484375 C 11.054688 20.175781 10.1875 20 9.261719 20 C 7.777344 20 6.433594 20.449219 5.460938 21.179688 C 4.484375 21.910156 3.875 22.933594 3.875 24.066406 C 3.875 25.199219 4.484375 26.21875 5.460938 26.949219 C 6.433594 27.679688 7.777344 28.128906 9.261719 28.128906 C 10.746094 28.128906 12.089844 27.679688 13.0625 26.949219 C 14.039062 26.21875 14.648438 25.199219 14.648438 24.066406 L 14.648438 8.59375 L 25.042969 5.992188 L 25.042969 17.839844 C 24.285156 17.53125 23.417969 17.355469 22.492188 17.355469 C 21.007812 17.355469 19.664062 17.804688 18.691406 18.535156 C 17.714844 19.265625 17.105469 20.285156 17.105469 21.417969 C 17.105469 22.550781 17.714844 23.570312 18.691406 24.304688 C 19.664062 25.035156 21.007812 25.480469 22.492188 25.480469 C 23.976562 25.480469 25.320312 25.035156 26.292969 24.304688 C 27.269531 23.570312 27.878906 22.550781 27.878906 21.417969 L 27.878906 4.21875 C 27.878906 3.441406 27.332031 2.71875 26.542969 2.71875 Z M 26.554688 2.90625 C 27.222656 2.914062 27.691406 3.53125 27.691406 4.21875 L 27.691406 21.417969 C 27.691406 22.484375 27.121094 23.449219 26.179688 24.152344 C 25.242188 24.855469 23.9375 25.292969 22.492188 25.292969 C 21.042969 25.292969 19.742188 24.855469 18.800781 24.152344 C 17.863281 23.449219 17.292969 22.484375 17.292969 21.417969 C 17.292969 20.351562 17.863281 19.386719 18.800781 18.683594 C 19.742188 17.980469 21.042969 17.542969 22.492188 17.542969 C 23.445312 17.542969 24.335938 17.734375 25.101562 18.0625 L 25.230469 17.976562 L 25.230469 5.871094 L 25.113281 5.78125 L 14.53125 8.429688 L 14.460938 8.519531 L 14.460938 24.066406 C 14.460938 25.128906 13.890625 26.09375 12.949219 26.800781 C 12.011719 27.503906 10.707031 27.941406 9.261719 27.941406 C 7.8125 27.941406 6.511719 27.503906 5.570312 26.800781 C 4.632812 26.09375 4.0625 25.128906 4.0625 24.066406 C 4.0625 23 4.632812 22.035156 5.570312 21.332031 C 6.511719 20.628906 7.8125 20.1875 9.261719 20.1875 C 10.214844 20.1875 11.105469 20.378906 11.871094 20.710938 L 12 20.625 L 12 7.527344 C 12 7.179688 12.117188 6.898438 12.328125 6.675781 C 12.539062 6.453125 12.851562 6.292969 13.25 6.214844 L 13.253906 6.210938 C 18.621094 4.726562 22.121094 4.035156 26.554688 2.90625 Z M 26.554688 2.90625 "/>
<path style=" stroke:none;fill-rule:nonzero;fill:url(#linear2);" d="M 7.9375 2.894531 C 7.207031 2.894531 6.613281 3.484375 6.613281 4.21875 L 6.613281 16.789062 C 6.613281 17.519531 7.207031 18.109375 7.9375 18.109375 L 14.554688 18.109375 C 15.285156 18.109375 15.875 17.519531 15.875 16.789062 L 15.875 4.21875 C 15.875 3.484375 15.285156 2.894531 14.554688 2.894531 Z M 11.246094 4.21875 C 11.925781 4.21875 12.507812 4.625 12.761719 5.210938 L 13.5625 5.210938 C 13.925781 5.210938 14.222656 5.53125 14.222656 5.925781 L 14.222656 5.984375 C 14.222656 6.382812 13.925781 6.699219 13.5625 6.699219 L 12.679688 6.699219 C 12.394531 7.195312 11.859375 7.527344 11.246094 7.527344 C 10.632812 7.527344 10.097656 7.195312 9.8125 6.699219 L 8.929688 6.699219 C 8.5625 6.699219 8.269531 6.382812 8.269531 5.984375 L 8.269531 5.925781 C 8.269531 5.53125 8.5625 5.210938 8.929688 5.210938 L 9.730469 5.210938 C 9.984375 4.625 10.566406 4.21875 11.246094 4.21875 Z M 11.246094 4.21875 "/>
<path style="fill-rule:nonzero;fill:url(#linear3);stroke-width:11.338583;stroke-linecap:square;stroke-linejoin:bevel;stroke:rgb(12.941177%,12.941177%,12.941177%);stroke-opacity:1;stroke-miterlimit:4;" d="M 680.013838 555.065133 C 646.70993 555.065133 620.019564 574.433364 620.019564 598.289354 L 620.019564 795.042229 L 560.02529 795.042229 L 670.093525 935.107601 C 675.053681 940.067758 684.973994 940.067758 689.934151 935.107601 L 800.002386 795.042229 L 740.008112 795.042229 L 740.008112 598.289354 C 740.008112 574.433364 713.317746 555.065133 680.013838 555.065133 Z M 680.013838 555.065133 " transform="matrix(0.016538,0,0,0.016538,0,0)"/>
<path style=" stroke:none;fill-rule:nonzero;fill:rgb(100%,100%,100%);fill-opacity:0.392157;" d="M 7.9375 2.894531 C 7.207031 2.894531 6.613281 3.484375 6.613281 4.21875 L 6.613281 4.550781 C 6.613281 3.816406 7.207031 3.226562 7.9375 3.226562 L 14.554688 3.226562 C 15.285156 3.226562 15.875 3.816406 15.875 4.550781 L 15.875 4.21875 C 15.875 3.484375 15.285156 2.894531 14.554688 2.894531 Z M 8.28125 6.121094 C 8.273438 6.164062 8.269531 6.210938 8.269531 6.257812 L 8.269531 6.316406 C 8.269531 6.710938 8.5625 7.03125 8.929688 7.03125 L 9.8125 7.03125 C 10.097656 7.527344 10.632812 7.859375 11.246094 7.859375 C 11.859375 7.859375 12.394531 7.527344 12.679688 7.03125 L 13.5625 7.03125 C 13.925781 7.03125 14.222656 6.710938 14.222656 6.316406 L 14.222656 6.257812 C 14.222656 6.210938 14.21875 6.164062 14.210938 6.121094 C 14.152344 6.453125 13.882812 6.699219 13.5625 6.699219 L 12.679688 6.699219 C 12.394531 7.195312 11.859375 7.527344 11.246094 7.527344 C 10.632812 7.527344 10.097656 7.195312 9.8125 6.699219 L 8.929688 6.699219 C 8.605469 6.699219 8.339844 6.453125 8.28125 6.121094 Z M 8.28125 6.121094 "/>
<path style=" stroke:none;fill-rule:nonzero;fill:rgb(0%,0%,0%);fill-opacity:0.235294;" d="M 11.246094 3.886719 C 10.566406 3.886719 9.984375 4.296875 9.730469 4.878906 L 8.929688 4.878906 C 8.5625 4.878906 8.269531 5.199219 8.269531 5.597656 L 8.269531 5.652344 C 8.269531 5.699219 8.273438 5.746094 8.28125 5.789062 C 8.339844 5.460938 8.605469 5.210938 8.929688 5.210938 L 9.730469 5.210938 C 9.984375 4.625 10.566406 4.21875 11.246094 4.21875 C 11.925781 4.21875 12.507812 4.625 12.761719 5.210938 L 13.5625 5.210938 C 13.882812 5.210938 14.152344 5.460938 14.210938 5.789062 C 14.21875 5.746094 14.222656 5.699219 14.222656 5.652344 L 14.222656 5.597656 C 14.222656 5.199219 13.925781 4.878906 13.5625 4.878906 L 12.761719 4.878906 C 12.507812 4.296875 11.925781 3.886719 11.246094 3.886719 Z M 6.613281 16.457031 L 6.613281 16.789062 C 6.613281 17.519531 7.207031 18.109375 7.9375 18.109375 L 14.554688 18.109375 C 15.285156 18.109375 15.875 17.519531 15.875 16.789062 L 15.875 16.457031 C 15.875 17.191406 15.285156 17.78125 14.554688 17.78125 L 7.9375 17.78125 C 7.207031 17.78125 6.613281 17.191406 6.613281 16.457031 Z M 6.613281 16.457031 "/>
<path style=" stroke:none;fill-rule:nonzero;fill:rgb(12.941177%,12.941177%,12.941177%);fill-opacity:1;" d="M 7.9375 2.800781 C 7.15625 2.800781 6.519531 3.4375 6.519531 4.21875 L 6.519531 16.789062 C 6.519531 17.570312 7.15625 18.203125 7.9375 18.203125 L 14.554688 18.203125 C 15.335938 18.203125 15.96875 17.570312 15.96875 16.789062 L 15.96875 4.21875 C 15.96875 3.4375 15.335938 2.800781 14.554688 2.800781 Z M 7.9375 2.988281 L 14.554688 2.988281 C 15.234375 2.988281 15.78125 3.535156 15.78125 4.21875 L 15.78125 16.789062 C 15.78125 17.46875 15.234375 18.015625 14.554688 18.015625 L 7.9375 18.015625 C 7.253906 18.015625 6.707031 17.46875 6.707031 16.789062 L 6.707031 4.21875 C 6.707031 3.535156 7.253906 2.988281 7.9375 2.988281 Z M 11.246094 4.125 C 10.550781 4.125 9.949219 4.53125 9.667969 5.117188 L 8.929688 5.117188 C 8.507812 5.117188 8.175781 5.484375 8.175781 5.925781 L 8.175781 5.984375 C 8.175781 6.425781 8.507812 6.792969 8.929688 6.792969 L 9.761719 6.792969 C 10.070312 7.289062 10.617188 7.621094 11.246094 7.621094 C 11.875 7.621094 12.421875 7.289062 12.730469 6.792969 L 13.5625 6.792969 C 13.980469 6.792969 14.316406 6.425781 14.316406 5.984375 L 14.316406 5.925781 C 14.316406 5.484375 13.980469 5.117188 13.5625 5.117188 L 12.820312 5.117188 C 12.539062 4.53125 11.941406 4.125 11.246094 4.125 Z M 11.246094 4.3125 C 11.890625 4.3125 12.4375 4.695312 12.675781 5.25 L 12.761719 5.304688 L 13.5625 5.304688 C 13.875 5.304688 14.128906 5.578125 14.128906 5.925781 L 14.128906 5.984375 C 14.128906 6.335938 13.875 6.605469 13.5625 6.605469 L 12.679688 6.605469 L 12.597656 6.652344 C 12.328125 7.121094 11.828125 7.433594 11.246094 7.433594 C 10.664062 7.433594 10.164062 7.121094 9.894531 6.652344 L 9.8125 6.605469 L 8.929688 6.605469 C 8.617188 6.605469 8.363281 6.335938 8.363281 5.984375 L 8.363281 5.925781 C 8.363281 5.578125 8.617188 5.304688 8.929688 5.304688 L 9.730469 5.304688 L 9.816406 5.25 C 10.054688 4.695312 10.601562 4.3125 11.246094 4.3125 Z M 11.246094 4.3125 "/>
</g>
</svg>

<svg xmlns="http://www.w3.org/2000/svg" width="32pt" height="32pt" viewBox="0 0 32 32"><defs><radialGradient id="a" gradientUnits="userSpaceOnUse" cx="450.909" cy="189.579" fx="450.909" fy="189.579" r="21.167" gradientTransform="matrix(0 -.07813 -.14064 0 38.239 63.595)"><stop offset="0" stop-opacity=".314"/><stop offset=".222" stop-opacity=".275"/><stop offset="1" stop-opacity="0"/></radialGradient><radialGradient id="b" gradientUnits="userSpaceOnUse" cx="450.909" cy="189.579" fx="450.909" fy="189.579" r="21.167" gradientTransform="matrix(0 .07813 .14064 0 -19.055 -7.527)"><stop offset="0" stop-opacity=".314"/><stop offset=".222" stop-opacity=".275"/><stop offset="1" stop-opacity="0"/></radialGradient><radialGradient id="c" gradientUnits="userSpaceOnUse" cx="450.909" cy="189.579" fx="450.909" fy="189.579" r="21.167" gradientTransform="matrix(0 -.07813 .14064 0 -19.055 63.595)"><stop offset="0" stop-opacity=".314"/><stop offset=".222" stop-opacity=".275"/><stop offset="1" stop-opacity="0"/></radialGradient><radialGradient id="d" gradientUnits="userSpaceOnUse" cx="450.909" cy="189.579" fx="450.909" fy="189.579" r="21.167" gradientTransform="matrix(0 .07813 -.14064 0 38.239 -7.527)"><stop offset="0" stop-opacity=".314"/><stop offset=".222" stop-opacity=".275"/><stop offset="1" stop-opacity="0"/></radialGradient><linearGradient id="e" gradientUnits="userSpaceOnUse" x1="255.323" y1="233.5" x2="255.323" y2="254.667" gradientTransform="matrix(.01336 0 0 .0625 6.18 13.439)"><stop offset="0" stop-opacity=".275"/><stop offset="1" stop-opacity="0"/></linearGradient><linearGradient id="f" gradientUnits="userSpaceOnUse" x1="1040" y1="1695.118" x2="1040" y2="175.118" gradientTransform="rotate(.891) scale(.01654)"><stop offset="0" stop-color="#2196f3"/><stop offset="1" stop-color="#64b5f6"/></linearGradient><linearGradient id="g" gradientUnits="userSpaceOnUse" x1="179.917" y1="74.75" x2="179.917" y2="-168.667" gradientTransform="matrix(.0625 0 0 .0625 0 13.439)"><stop offset="0" stop-color="#fbc02d"/><stop offset="1" stop-color="#f9a825"/></linearGradient><linearGradient id="h" gradientUnits="userSpaceOnUse" x1="680" y1="935.118" x2="680" y2="555.118"><stop offset="0" stop-color="#bdbdbd"/><stop offset="1" stop-color="#e0e0e0"/></linearGradient></defs><path d="M11.906 28.035h2.649v-1.324h-2.649zm0 0" fill="url(#a)"/><path d="M7.277 28.035H4.63v1.32h2.648zm0 0" fill="url(#b)"/><path d="M7.277 28.035H4.63v-1.324h2.648zm0 0" fill="url(#c)"/><path d="M11.906 28.035h2.649v1.32h-2.649zm0 0" fill="url(#d)"/><path d="M7.277 27.703h4.63v1.652h-4.63zm0 0" fill="url(#e)"/><path d="M26.543 2.813c-4.438 1.132-7.938 1.82-13.313 3.308-.828.164-1.324.672-1.324 1.406v13.098a6.683 6.683 0 0 0-2.644-.531c-2.934 0-5.293 1.773-5.293 3.972 0 2.2 2.36 3.97 5.293 3.97 2.93 0 5.293-1.77 5.293-3.97V8.52L25.137 5.87v12.106a6.682 6.682 0 0 0-2.645-.528c-2.933 0-5.293 1.77-5.293 3.969 0 2.2 2.36 3.969 5.293 3.969 2.93 0 5.293-1.77 5.293-3.969v-17.2c0-.734-.508-1.405-1.242-1.405zm0 0" fill="url(#f)"/><path d="M26.543 2.813c-4.438 1.132-7.938 1.82-13.313 3.308-.828.164-1.324.672-1.324 1.406v.164c0-.73.496-1.238 1.324-1.406 5.375-1.488 8.875-2.176 13.313-3.305.734 0 1.242.672 1.242 1.403v-.164c0-.735-.508-1.407-1.242-1.407zm-4.05 14.636c-2.934 0-5.294 1.77-5.294 3.969v.082c.059-2.16 2.399-3.887 5.293-3.887.965 0 1.867.196 2.645.532v-.168a6.682 6.682 0 0 0-2.645-.528zM9.261 20.094c-2.934 0-5.293 1.773-5.293 3.972v.082c.058-2.16 2.398-3.886 5.293-3.886.965 0 1.867.191 2.644.527v-.164a6.683 6.683 0 0 0-2.644-.531zm0 0" fill="#fff" fill-opacity=".392"/><path d="M25.137 5.676L14.555 8.32v.2L25.137 5.87zm2.648 15.547c0 2.199-2.363 3.968-5.293 3.968-2.887 0-5.222-1.718-5.289-3.87-.004.03-.004.066-.004.097 0 2.2 2.36 3.969 5.293 3.969 2.93 0 5.293-1.77 5.293-3.969zm-13.23 2.644c0 2.2-2.364 3.969-5.293 3.969-2.887 0-5.223-1.715-5.29-3.871-.003.035-.003.066-.003.101 0 2.2 2.36 3.97 5.293 3.97 2.93 0 5.293-1.77 5.293-3.97zm0 0" fill-opacity=".235"/><path d="M26.543 2.719l-.023.004c-4.434 1.129-7.938 1.82-13.313 3.308-.426.086-.773.262-1.016.516a1.396 1.396 0 0 0-.379.98v12.957A6.774 6.774 0 0 0 9.262 20c-1.485 0-2.828.45-3.801 1.18-.977.73-1.586 1.754-1.586 2.886 0 1.133.61 2.153 1.586 2.883.973.73 2.316 1.18 3.8 1.18 1.485 0 2.829-.45 3.802-1.18.976-.73 1.585-1.75 1.585-2.883V8.594l10.395-2.602V17.84a6.774 6.774 0 0 0-2.55-.485c-1.485 0-2.829.45-3.802 1.18-.976.73-1.586 1.75-1.586 2.883s.61 2.152 1.586 2.887c.973.73 2.317 1.175 3.801 1.175 1.485 0 2.828-.445 3.801-1.175.977-.735 1.586-1.754 1.586-2.887v-17.2c0-.777-.547-1.5-1.336-1.5zm.012.187c.668.008 1.136.625 1.136 1.313v17.199c0 1.066-.57 2.031-1.511 2.734-.938.703-2.242 1.141-3.688 1.141-1.449 0-2.75-.438-3.691-1.14-.938-.704-1.508-1.669-1.508-2.735 0-1.066.57-2.031 1.508-2.734.941-.704 2.242-1.141 3.691-1.141.953 0 1.844.191 2.61.52l.128-.086V5.87l-.117-.09L14.531 8.43l-.07.09v15.546c0 1.063-.57 2.028-1.512 2.735-.937.703-2.242 1.14-3.687 1.14-1.45 0-2.75-.437-3.692-1.14-.937-.707-1.508-1.672-1.508-2.735 0-1.066.57-2.03 1.508-2.734.942-.703 2.242-1.145 3.692-1.145.953 0 1.843.192 2.61.524l.128-.086V7.527c0-.347.117-.629.328-.851.211-.223.524-.383.922-.461l.004-.004c5.367-1.484 8.867-2.176 13.3-3.305zm0 0" fill="#212121"/><path d="M7.938 2.895c-.731 0-1.325.59-1.325 1.324v12.57c0 .73.594 1.32 1.324 1.32h6.618c.73 0 1.32-.59 1.32-1.32V4.22a1.32 1.32 0 0 0-1.32-1.324zm3.308 1.324c.68 0 1.262.406 1.516.992h.8c.364 0 .66.32.66.715v.058c0 .399-.296.715-.66.715h-.882a1.65 1.65 0 0 1-1.434.828A1.65 1.65 0 0 1 9.812 6.7H8.93c-.367 0-.66-.316-.66-.715v-.058c0-.395.293-.715.66-.715h.8a1.647 1.647 0 0 1 1.516-.992zm0 0" fill="url(#g)"/><path d="M680.014 555.065c-33.304 0-59.994 19.368-59.994 43.224v196.753h-59.995l110.069 140.066c4.96 4.96 14.88 4.96 19.84 0l110.068-140.066h-59.994V598.29c0-23.856-26.69-43.224-59.994-43.224zm0 0" transform="rotate(.891) scale(.01654)" fill="url(#h)" stroke-width="11.339" stroke-linecap="square" stroke-linejoin="bevel" stroke="#212121"/><path d="M7.938 2.895c-.731 0-1.325.59-1.325 1.324v.332c0-.735.594-1.324 1.324-1.324h6.618c.73 0 1.32.59 1.32 1.324v-.332a1.32 1.32 0 0 0-1.32-1.324zM8.28 6.12a.775.775 0 0 0-.011.137v.058c0 .395.293.715.66.715h.883c.285.496.82.828 1.433.828a1.65 1.65 0 0 0 1.434-.828h.883c.363 0 .66-.32.66-.715v-.058a.775.775 0 0 0-.012-.137c-.059.332-.328.578-.649.578h-.882a1.65 1.65 0 0 1-1.434.828A1.65 1.65 0 0 1 9.812 6.7H8.93c-.325 0-.59-.246-.649-.578zm0 0" fill="#fff" fill-opacity=".392"/><path d="M11.246 3.887c-.68 0-1.262.41-1.516.992h-.8c-.367 0-.66.32-.66.719v.054c0 .047.003.094.011.137.059-.328.324-.578.649-.578h.8a1.647 1.647 0 0 1 1.516-.992c.68 0 1.262.406 1.516.992h.8c.32 0 .59.25.649.578a.775.775 0 0 0 .012-.137v-.054c0-.399-.297-.72-.66-.72h-.801a1.654 1.654 0 0 0-1.516-.991zm-4.633 12.57v.332c0 .73.594 1.32 1.324 1.32h6.618c.73 0 1.32-.59 1.32-1.32v-.332a1.32 1.32 0 0 1-1.32 1.324H7.938c-.731 0-1.325-.59-1.325-1.324zm0 0" fill-opacity=".235"/><path d="M7.938 2.8A1.42 1.42 0 0 0 6.52 4.22v12.57c0 .781.636 1.414 1.418 1.414h6.617c.78 0 1.414-.633 1.414-1.414V4.22c0-.782-.633-1.418-1.414-1.418zm0 .188h6.617c.68 0 1.226.547 1.226 1.23V16.79c0 .68-.547 1.227-1.226 1.227H7.938c-.684 0-1.231-.547-1.231-1.227V4.22c0-.684.547-1.23 1.23-1.23zm3.308 1.137a1.75 1.75 0 0 0-1.578.992H8.93c-.422 0-.754.367-.754.809v.058c0 .442.332.809.754.809h.832a1.744 1.744 0 0 0 2.968 0h.832c.418 0 .754-.367.754-.809v-.058c0-.442-.336-.809-.754-.809h-.742a1.745 1.745 0 0 0-1.574-.992zm0 .188c.645 0 1.191.382 1.43.937l.086.055h.8c.313 0 .567.273.567.62v.06c0 .35-.254.62-.566.62h-.883l-.082.047a1.55 1.55 0 0 1-1.352.782 1.55 1.55 0 0 1-1.351-.782l-.082-.047H8.93c-.313 0-.567-.27-.567-.62v-.06c0-.347.254-.62.567-.62h.8l.086-.055a1.547 1.547 0 0 1 1.43-.938zm0 0" fill="#212121"/></svg>
